X:15716
T:Somhairle Mac Con Uladh
M:3/4
L:1/8
Q:120
R:air
K:A
A>B||c3 B c<e|A4 (3Ace|f3 e f<a|e3 c B>A|d3 c d<e|c4 (3cBA|B2 c2 d>e|f3
e d>B|!
c3 B c<e|A4 (3Ace|f3 e f<a|e3 c B>A|d3 c d<e|c4 (3cBA|B2 c2 d>e|f4 (3efg
|!
a4 a2|e3 c B>A|f3 e f<a|e3 c B>A|d3 c d<a|c3 B c<a1|B2 c2 d>e|f4 (3efg|!
a4 a2|e3 c B>A|f3 e f<a|e3 e e<a|d3 d d<a|c3 c c<a|B3 A B<c|A4!
